theme/essential/pix_core/t/delete.svg

<!DOCTYPE svg PUBLIC "-//W3C//DTD SVG 1.1//EN" "http://www.w3.org/Graphics/SVG/1.1/DTD/svg11.dtd" [
	<!ENTITY ns_flows "http://ns.adobe.com/Flows/1.0/">
]><svg xmlns="http://www.w3.org/2000/svg" width="12" height="12" viewBox="-0.4 -0.3 12 12" preserveAspectRatio="xMinYMid meet" overflow="visible" enable-background="new -0.4 -0.3 12 12"><path d="M7.8 5.6l3.2-3.2c.4-.4.4-1 0-1.4l-.7-.7c-.4-.4-1-.4-1.4 0l-3.3 3.2-3.2-3.2c-.4-.4-1-.4-1.4 0l-.7.7c-.4.4-.4 1 0 1.4l3.2 3.2-3.2 3.3c-.4.4-.4 1 0 1.4l.7.7c.4.4 1 .4 1.4 0l3.2-3.2 3.3 3.2c.4.4 1 .4 1.4 0l.7-.7c.4-.4.4-1 0-1.4l-3.2-3.3z" fill="#999"/></svg>

<!DOCTYPE svg PUBLIC "-//W3C//DTD SVG 1.1//EN" "http://www.w3.org/Graphics/SVG/1.1/DTD/svg11.dtd" [
	<!ENTITY ns_flows "http://ns.adobe.com/Flows/1.0/">
]><svg xmlns="http://www.w3.org/2000/svg" width="12" height="12" viewBox="-0.4 -0.3 12 12" preserveAspectRatio="xMinYMid meet" overflow="visible" enable-background="new -0.4 -0.3 12 12"><path d="M7.8 5.6L11 2.4c.4-.4.4-1 0-1.4l-.7-.7c-.4-.4-1-.4-1.4 0L5.6 3.5 2.4.3C2-.1 1.4-.1 1 .3L.3 1c-.4.4-.4 1 0 1.4l3.2 3.2L.3 8.9c-.4.4-.4 1 0 1.4l.7.7c.4.4 1 .4 1.4 0l3.2-3.2L8.9 11c.4.4 1 .4 1.4 0l.7-.7c.4-.4.4-1 0-1.4L7.8 5.6z" fill="#999"/></svg>
